!!!COM:	la Rue, Pierre de
!!!CDT:	~1452///-1518/11/20
!!!OTL:	Magnificat Quarti toni
!!!AGN:	Motet
!!!SCT:	Rue2010
!!!SCA:	Rue2010
!!!voices:	4
**kern	**kern	**kern	**kern
*staff4	*staff3	*staff2	*staff1
*Ivox	*Ivox	*Ivox	*Ivox
*I"Bassus	*I"Tenor	*I"Contra	*I"Discantus
*I'B	*I'T	*I'C	*I'D
*>[A,B,C,D,E,F1,F2]	*>[A,B,C,D,E,F1,F2]	*>[A,B,C,D,E,F1,F2]	*>[A,B,C,D,E,F1,F2]
*>version1[A,B,C,D,E,F1]	*>version1[A,B,C,D,E,F1]	*>version1[A,B,C,D,E,F1]	*>version1[A,B,C,D,E,F1]
*>version2[A,B,C,D,E,F2]	*>version2[A,B,C,D,E,F2]	*>version2[A,B,C,D,E,F2]	*>version2[A,B,C,D,E,F2]
*>A	*>A	*>A	*>A
*clefF4	*clefGv2	*clefGv2	*clefG2
*k[]	*k[]	*k[]	*k[]
*M2/1	*M2/1	*M2/1	*M2/1
*met(C|)	*met(C|)	*met(C|)	*met(C|)
!!section: Et exsultavit
!!!OMD: Et exsultavit
=1-	=1-	=1-	=1-
[0A	0r	1r	0r
.	.	2.A/	.
.	.	4B\	.
=2	=2	=2	=2
0A]	0r	2c\	0r
.	.	2d\	.
.	.	2e\	.
.	.	2f\	.
=3	=3	=3	=3
0G	1r	2.g\	0r
.	.	4f\	.
.	2.G/	2e\	.
.	.	[2d\	.
.	4A/	.	.
=4	=4	=4	=4
0G	2B\	4d\]	0r
.	.	4c\	.
.	2c\	2c\	.
.	2d\	1B	.
.	2e\	.	.
=5	=5	=5	=5
0A	1f	1A	1r
.	[1e	1r	2.e/
.	.	.	4f/
=6	=6	=6	=6
0E	2e\]	0r	2g/
.	4d\	.	2a/
.	4c\	.	.
.	2B\	.	2b\
.	2A/	.	2cc\
=7	=7	=7	=7
0r	1B	1r	1dd
.	1r	2.A/	[1cc
.	.	4B\	.
=8	=8	=8	=8
0r	0r	2c\	2cc\]
.	.	2d\	4b\
.	.	.	4a/
.	.	2.e\	[1g
.	.	4f\	.
=9	=9	=9	=9
0r	0r	2.g\	0g_
.	.	4f\	.
.	.	2e\	.
.	.	2d\	.
=10	=10	=10	=10
1r	1r	2c\	1g]
.	.	2B\	.
2.AA/	1A	1A	1a
4BB/	.	.	.
=11	=11	=11	=11
2C/	1A	0r	0r
2D\	.	.	.
2.E\	[1G	.	.
4F\	.	.	.
=12	=12	=12	=12
2.G\	0G]	0r	0r
4F\	.	.	.
2E\	.	.	.
2D\	.	.	.
=13	=13	=13	=13
2C/	1A	2r	2.e/
2AA/	.	1e	.
.	.	.	4f/
1E	1E	.	2g/
.	.	4d\	2a/
.	.	4c\	.
=14	=14	=14	=14
2D\	0r	2c\	2b\
2C/	.	1A	2cc\
1BB	.	.	1dd
.	.	2G#i/	.
=15	=15	=15	=15
1AA	1r	1A	1cc
1r	2.G/	1E	2.b\
.	4A/	.	4cc\
=16	=16	=16	=16
0r	2B\	0r	2dd\
.	2c\	.	2cc\
.	2d\	.	1a
.	2e\	.	.
=17	=17	=17	=17
1r	1f	2.A/	2a/
.	.	.	2dd\
.	.	4B\	.
2.AA/	[1e	2c\	2cc\
.	.	2d\	[2b\
4BB/	.	.	.
=18	=18	=18	=18
2C/	2e\]	2e\	2b\]
2D\	4d\	2f\	1a
.	4c\	.	.
1E	1B	[1e	.
.	.	.	2g#i/
=19	=19	=19	=19
1AA	[0A	1e]	0a
1r	.	2.A/	.
.	.	4B\	.
=20	=20	=20	=20
2.AA/	0A]	2c\	0a
.	.	2d\	.
4BB/	.	.	.
2C/	.	2e\	.
2D\	.	2f\	.
=21	=21	=21	=21
2E\	0r	2.g\	[0g
2F\	.	.	.
.	.	4f\	.
[1G	.	[1d	.
=22	=22	=22	=22
2G\]	0r	1d]	0g]
2F\	.	.	.
2E\	.	1e	.
2D\	.	.	.
=23	=23	=23	=23
2C/	0A	1r	[0a
2BB/	.	.	.
[1AA	.	2.A/	.
.	.	4B\	.
=24	=24	=24	=24
1AA]	1A	2c\	0a]
.	.	2d\	.
1AA	1A	2e\	.
.	.	2f\	.
=25	=25	=25	=25
0E	2G/	2.g\	[0b
.	2E/	.	.
.	.	4f\	.
.	2.G/	4e\	.
.	.	4d\	.
.	.	[2e\	.
.	4A/	.	.
=26	=26	=26	=26
0r	2B\	2e\]	0b]
.	2c\	4d\	.
.	.	4c\	.
.	2d\	1B	.
.	2e\	.	.
=27	=27	=27	=27
1A	1f	1r	[0a
1A	[1e	2.A/	.
.	.	4B\	.
=28	=28	=28	=28
0A	2e\]	2c\	0a]
.	2d\	2d\	.
.	1c	2e\	.
.	.	2f\	.
=29	=29	=29	=29
1E	0B	2g\	2.g/
.	.	1e	.
.	.	.	4a/
1G	.	.	4b\
.	.	.	4cc\
.	.	[2d\	[2dd\
=30	=30	=30	=30
1F	2r	4d\]	2dd\]
.	.	4e\	.
.	2A/	2f\	1cc
1E	2B\	2g\	.
.	2c\	2e\	[2b\
=31	=31	=31	=31
1D	1d	2f\	2b\]
.	.	2f\	1a
1E	1B	1e	.
.	.	.	2g#i/
=32	=32	=32	=32
[0AA	[0A	2r	1.a
.	.	1f	.
.	.	4e\	4g/
.	.	4d\	4f/
=33	=33	=33	=33
0AA]	0A]	2.c\	2e/
.	.	.	2A/
.	.	4d\	.
.	.	1e	2r
.	.	.	[2cc\
=34	=34	=34	=34
0r	1A	1A	4cc\]
.	.	.	4b\
.	.	.	4a/
.	.	.	4g/
.	1A	1r	1f
=35	=35	=35	=35
1r	0A	0r	1e
2r	.	.	2r
[2F\	.	.	[2a/
=36	=36	=36	=36
4F\]	0r	1r	4a/]
4E\	.	.	4g/
4D\	.	.	4f/
4C/	.	.	4e/
1BB	.	1G	1d
=37	=37	=37	=37
0AA	0r	1A	1c
.	.	[1e	2r
.	.	.	[2cc\
=38	=38	=38	=38
0r	0r	1e]	4cc\]
.	.	.	4b\
.	.	.	2g/
.	.	1d	2a/
.	.	.	2b\
=39	=39	=39	=39
2r	0r	0c	2e/
2.F\	.	.	2.a/
4E\	.	.	4g/
2C/	.	.	2e/
=40	=40	=40	=40
2D\	0r	1B	2f/
2E\	.	.	2g/
2AA/	.	2A/	1c
[2A\	.	[2c\	.
=41	=41	=41	=41
4A\]	0r	4c\]	0r
4G\	.	4B\	.
2E\	.	2G/	.
2F\	.	2A/	.
2G\	.	2B\	.
=42	=42	=42	=42
2C/	[0A	2E/	0r
2.F\	.	2c\	.
.	.	2d\	.
4E\	.	.	.
4D\	.	[2f\	.
4C/	.	.	.
=43	=43	=43	=43
4D\	1A]	4f\]	0r
4C/	.	4e\	.
4BB/	.	4d\	.
4AA/	.	4c\	.
1BB	1G#i	1d	.
=44	=44	=44	=44
0AA	1A	2.c\	0r
.	.	4d\	.
.	2.c\	2e\	.
.	.	[2f\	.
.	4B\	.	.
=45	=45	=45	=45
1r	2A/	4f\]	0r
.	.	4e\	.
.	2G/	1e	.
1D	1F	.	.
.	.	2d\	.
=46	=46	=46	=46
1C	0E	0e	0r
1C	.	.	.
=47	=47	=47	=47
1D	1r	0r	[0a
2.F\	2.A/	.	.
4E\	4G/	.	.
=48	=48	=48	=48
2D\	2F/	0r	1a]
2C/	2E/	.	.
1BB	1D	.	1g
=49	=49	=49	=49
0AA	1E	0e	1a
.	2r	.	2.cc\
.	2A/	.	.
.	.	.	4b\
=50	=50	=50	=50
0r	1A	1e	2a/
.	.	.	2g/
.	1B	1d	1f
=51	=51	=51	=51
0r	0c	1e	[0el
.	.	2.g\	.
.	.	4f\	.
=52	=52	=52	=52
0E	0G	2e\	0e_
.	.	2d\	.
.	.	1c	.
=53	=53	=53	=53
0El	0El	0Bl	0e]
!!LO:LB:i:g=z
=54||	=54||	=54||	=54||
*>B	*>B	*>B	*>B
*clefF4	*clefGv2	*clefGv2	*clefG2
*k[]	*k[]	*k[]	*k[]
*M2/1	*M2/1	*M2/1	*M2/1
*met(C|)	*met(C|)	*met(C|)	*met(C|)
!!section: Quia fecit
!!!OMD: Quia fecit
0r	0r	1A	[0a
.	.	2A/	.
.	.	[2c\	.
=55	=55	=55	=55
0r	1A	2c\]	0a_
.	.	4B\	.
.	.	4A/	.
.	2A/	2.c\	.
.	[2c\	.	.
.	.	4d\	.
=56	=56	=56	=56
1AA	2c\]	1e	0a_
.	4B\	.	.
.	4A/	.	.
2AA/	2.c\	1A	.
[2C/	.	.	.
.	4d\	.	.
=57	=57	=57	=57
2C/]	1e	2r	0a]
4BB/	.	1c	.
4AA/	.	.	.
2.C/	1E	.	.
.	.	4B\	.
4D\	.	4A/	.
=58	=58	=58	=58
0E	2r	2.c\	[0g
.	1c	.	.
.	.	4d\	.
.	.	1e	.
.	4B\	.	.
.	4A/	.	.
=59	=59	=59	=59
0E	2.c\	1E	0g]
.	4d\	.	.
.	1e	1r	.
=60	=60	=60	=60
1r	[0A	1e	0a
1D	.	[1f	.
=61	=61	=61	=61
2D\	0A]	2f\]	[0a
1F	.	4e\	.
.	.	4d\	.
.	.	2.c\	.
4E\	.	.	.
4D\	.	4d\	.
=62	=62	=62	=62
2.F\	0r	1A	0a]
4G\	.	.	.
1A	.	2r	.
.	.	[2f\	.
=63	=63	=63	=63
1D	2r	2f\]	[0a
.	1A	4e\	.
.	.	4d\	.
1r	.	2.c\	.
.	4G/	.	.
.	4F/	4d\	.
=64	=64	=64	=64
1r	2.A/	1A	0a]
.	4B\	.	.
2r	1c	1r	.
[2F\	.	.	.
=65	=65	=65	=65
2F\]	1F	2r	0a
4E\	.	1f	.
4D\	.	.	.
2.F\	2r	.	.
.	[2c\	4e\	.
4G\	.	4d\	.
=66	=66	=66	=66
1A	2c\]	2.c\	[0a
.	4B\	.	.
.	4A/	4d\	.
1AA	2.c\	1e	.
.	4d\	.	.
=67	=67	=67	=67
1r	1e	2.A/	0a]
.	.	4B\	.
2r	1A	1c	.
[2A\	.	.	.
=68	=68	=68	=68
2A\]	0r	0F	0a
4G\	.	.	.
4F\	.	.	.
2.A\	.	.	.
4B\	.	.	.
=69	=69	=69	=69
1c	2.A/	1r	[0a
.	4B\	.	.
2.F\	1c	1f	.
4G\	.	.	.
=70	=70	=70	=70
1A	1c	2e\	0a_
.	.	2c\	.
1D	2.A/	2d\	.
.	.	2f\	.
.	4B\	.	.
=71	=71	=71	=71
1A	1c	2e\	0a]
.	.	2c\	.
1D	1F	2d\	.
.	.	2f\	.
=72	=72	=72	=72
1A	2r	2e\	0r
.	2A/	2c\	.
2D\	2B\	2d\	.
[2A\	[2c\	[2f\	.
=73	=73	=73	=73
4A\]	4c\]	4f\]	0r
4G\	4B\	4e\	.
4F\	4A/	1e	.
4E\	4G/	.	.
1F	1A	.	.
.	.	2d\	.
=74	=74	=74	=74
[0E	0B	[0e	1.g
.	.	.	2a/
=75	=75	=75	=75
0E_	1r	0e_	2b\
.	.	.	2e/
.	[1G	.	[1b
=76	=76	=76	=76
0E]	0G]	0e]	2b\]
.	.	.	2.g/
.	.	.	4a/
.	.	.	2b\
=77	=77	=77	=77
0r	[0A	2.c\	1.cc
.	.	4d\	.
.	.	2e\	.
.	.	[2f\	[2a/
=78	=78	=78	=78
0r	1A]	2f\]	4a/]
.	.	.	4b\
.	.	2e\	2cc\
.	[1B	2.d\	[1dd
.	.	4e\	.
=79	=79	=79	=79
0r	0B]	2f\	2dd\]
.	.	2.g\	2.b\
.	.	4f\	4cc\
.	.	2d\	2dd\
=80	=80	=80	=80
1.E	2c\	0e	[0g
.	1B	.	.
[2C/	[2e\	.	.
=81	=81	=81	=81
4C/]	4e\]	1r	1g]
4D\	4d\	.	.
2E\	4c\	.	.
.	4B\	.	.
[1F	2.A/	2r	[1a
.	.	[2c\	.
.	4B\	.	.
=82	=82	=82	=82
2F\]	2c\	2c\]	0a]
2.D\	2.d\	2.f\	.
4E\	4c\	4e\	.
2F\	4B\	4d\	.
.	4A/	4c\	.
=83	=83	=83	=83
1.G	1G	2.B\	[0b
.	.	4c\	.
.	[1B	2d\	.
[2E\	.	2e\	.
=84	=84	=84	=84
4E\]	1B]	2E/	1b]
4F\	.	.	.
2G\	.	1.e	.
1A	1c	.	[1a
=85	=85	=85	=85
0D	0d	0f	0a]
=86	=86	=86	=86
0E	0B	0e	[0g
=87	=87	=87	=87
1r	2r	2r	0g_
.	2G/	2g\	.
2r	2G/	2e\	.
2E\	2G/	[2g\	.
=88	=88	=88	=88
2E\	1B	4g\]	0g_
.	.	4f\	.
2E\	.	4e\	.
.	.	4d\	.
1G	2r	2e\	.
.	2G/	2d\	.
=89	=89	=89	=89
2r	2G/	2e\	0g_
2E\	2G/	2g\	.
2E\	1B	2e\	.
2E\	.	[2g\	.
=90	=90	=90	=90
1G	2r	4g\]	0g_
.	.	4f\	.
.	2E/	4e\	.
.	.	4d\	.
2r	2E/	[1e	.
2C/	2E/	.	.
=91	=91	=91	=91
2C/	2e\	1e]	0g]
2C/	4d\	.	.
.	4c\	.	.
1E	1B	1e	.
=92	=92	=92	=92
2r	0A	2r	0a
2AA/	.	2e\	.
2C/	.	2e\	.
2D\	.	2d\	.
=93	=93	=93	=93
2AA/	0r	2e\	0r
2E\	.	2.g\	.
2G\	.	.	.
.	.	4f\	.
2A\	.	[2e\	.
=94	=94	=94	=94
2E\	2r	2e\]	0r
2AA/	2A/	4d\	.
.	.	4c\	.
1E	2G/	1B	.
.	2G/	.	.
=95	=95	=95	=95
0r	2A/	2r	0r
.	1c	1e	.
.	[2G/	2d\	.
=96	=96	=96	=96
1r	2G/]	2B\	0r
.	2E/	1e	.
2r	1F	.	.
2D\	.	2d\	.
=97	=97	=97	=97
2C/	1E	1e	0r
2C/	.	.	.
2D\	1r	[1A	.
[2F\	.	.	.
=98	=98	=98	=98
4F\]	0r	1A]	0r
4E\	.	.	.
4D\	.	.	.
4C/	.	.	.
1BB	.	1G	.
=99	=99	=99	=99
1AA	0r	2A/	2r
.	.	1c	2a/
1r	.	.	2a/
.	.	2B\	2g/
=100	=100	=100	=100
0r	0r	2.A/	2a/
.	.	.	2.cc\
.	.	4B\	.
.	.	4c\	.
.	.	4d\	4b\
.	.	[2e\	4a/
.	.	.	4g/
=101	=101	=101	=101
1r	0r	2e\]	1f
.	.	2d\	.
2r	.	[1e	2e/
2A\	.	.	[2cc\
=102	=102	=102	=102
2A\	0r	0e_	2cc\]
2G\	.	.	2b\
2A\	.	.	2cc\
[2c\	.	.	2g/
=103	=103	=103	=103
4c\]	1r	1e]	2.cc\
4B\	.	.	.
4A\	.	.	.
4G\	.	.	4b\
1F	1D	1d	1a
=104	=104	=104	=104
[0El	2.G/	[0el	[0gl
.	4A/	.	.
.	2B\	.	.
.	[2c\	.	.
=105	=105	=105	=105
0E_	2c\]	0e_	0g_
.	2B\	.	.
.	[1c	.	.
=106	=106	=106	=106
0E]	1c]	0e]	0g]
.	1Bl	.	.
!!LO:LB:i:g=z
=107||	=107||	=107||	=107||
*>C	*>C	*>C	*>C
*clefF4	*clefGv2	*clefGv2	*clefG2
*k[]	*k[]	*k[]	*k[]
*M2/1	*M2/1	*M2/1	*M2/1
*met(C|)	*met(C|)	*met(C|)	*met(C|)
!!section: Fecit potentiam
!!!OMD: Fecit potentiam
0r	1A	0r	0r
.	1A	.	.
=108	=108	=108	=108
0r	1G	1e	0r
.	2A/	1e	.
.	[2c\	.	.
=109	=109	=109	=109
0r	2c\]	1d	0r
.	2B\	.	.
.	2A/	2e\	.
.	2G/	[2g\	.
=110	=110	=110	=110
0r	1A	2g\]	0r
.	.	2f\	.
.	1G	2e\	.
.	.	2d\	.
=111	=111	=111	=111
0r	2r	2e\	0a
.	1c	2A/	.
.	.	2.e\	.
.	4B\	.	.
.	4A/	8d\L	.
.	.	8c\J	.
=112	=112	=112	=112
0r	2c\	2e\	1g
.	2B\	2d\	.
.	2.A/	2.c\	2a/
.	.	.	[2cc\
.	4B\	4d\	.
=113	=113	=113	=113
0r	2c\	2e\	2cc\]
.	1d	2.f\	2b\
.	.	.	2a/
.	.	4d\	.
.	2B\	[2g\	2g/
=114	=114	=114	=114
0r	2c\	2g\]	1a
.	2d\	2f\	.
.	1e	2g\	1g
.	.	[2e\	.
=115	=115	=115	=115
0r	1A	2e\]	1r
.	.	2.f\	.
.	2G/	.	2r
.	.	4e\	.
.	2E/	[2e\	[2cc\
=116	=116	=116	=116
0r	1F	2e\]	2cc\]
.	.	2d\	4b\
.	.	.	4a/
.	1E	1e	2cc\
.	.	.	2b\
=117	=117	=117	=117
0r	0r	2r	2e/
.	.	1e	2b\
.	.	.	2cc\
.	.	2f\	2a/
=118	=118	=118	=118
0r	2r	2d\	2b\
.	2E/	2e\	2g/
.	2F/	2c\	1a
.	2D/	2d\	.
=119	=119	=119	=119
0r	2E/	1B	2.g/
.	2G/	.	.
.	.	.	8a/L
.	.	.	8b/J
.	1F	2A/	2cc\
.	.	2f\	2a/
=120	=120	=120	=120
0r	2r	2d\	2b\
.	2E/	2e\	2g/
.	2F/	2c\	1a
.	2D/	2d\	.
=121	=121	=121	=121
0r	2E/	2B\	1g
.	2G/	1e	.
.	1F	.	1r
.	.	2d\	.
=122	=122	=122	=122
0r	1E	1e	1g
.	1r	1B	2g/
.	.	.	2g/
=123	=123	=123	=123
0r	1E	2B\	1g
.	.	2B\	.
.	2E/	2c\	2r
.	2E/	2B\	[2g/
=124	=124	=124	=124
0r	1E	2.e\	1g]
.	.	4d\	.
.	2r	2c\	2a/
.	[2E/	2B\	2b\
=125	=125	=125	=125
0r	1E]	2.e\	1g
.	.	4d\	.
.	2F/	2c\	2r
.	2G/	2B\	[2g/
=126	=126	=126	=126
0r	1E	2r	1g]
.	.	2B\	.
.	2r	2c\	2a/
.	[2E/	2B\	[2b\
=127	=127	=127	=127
0r	1E]	2.e\	2b\]
.	.	.	2g/
.	.	4d\	.
.	2F/	2c\	2a/
.	[2G/	2B\	2b\
=128	=128	=128	=128
0r	2G/]	2.e\	1g
.	2E/	.	.
.	.	4d\	.
.	2F/	2c\	2r
.	2G/	2B\	[2g/
=129	=129	=129	=129
0r	1E	2.g\	4g/]
.	.	.	4a/
.	.	.	2.b\
.	.	4f\	.
.	1r	2e\	.
.	.	.	4cc\
.	.	2d\	2dd\
=130	=130	=130	=130
0r	2r	2c\	1g
.	2E/	2B\	.
.	2F/	2A/	2cc\
.	2G/	[2e\	[2b\
=131	=131	=131	=131
0r	1A	4e\]	4b\]
.	.	4d\	4a/
.	.	4c\	1a
.	.	8B/L	.
.	.	8A/J	.
.	1E	1B	.
.	.	.	2g#i/
=132	=132	=132	=132
0r	2r	1A	0a
.	2.A/	.	.
.	.	1r	.
.	4B\	.	.
.	4c\	.	.
.	4d\	.	.
=133	=133	=133	=133
0r	2.e\	2r	0r
.	.	2.c\	.
.	4d\	.	.
.	4c\	.	.
.	4B\	4d\	.
.	2A/	4e\	.
.	.	4f\	.
=134	=134	=134	=134
0r	2G/	2.g\	0r
.	1c	.	.
.	.	4f\	.
.	.	2e\	.
.	[2B\	[2d\	.
=135	=135	=135	=135
0r	2B\]	2d\]	0r
.	1A	2c\	.
.	.	1B	.
.	2G#i/	.	.
=136	=136	=136	=136
0r	0A	2A/	0a
.	.	2f\	.
.	.	2e\	.
.	.	2c\	.
=137	=137	=137	=137
0r	2r	1d	0a
.	2f\	.	.
.	2e\	1A	.
.	2c\	.	.
=138	=138	=138	=138
0r	1d	2r	0a
.	.	2f\	.
.	1A	2e\	.
.	.	2c\	.
=139	=139	=139	=139
0r	2r	1d	0r
.	2G/	.	.
.	2F/	2A/	.
.	2D/	[2d\	.
=140	=140	=140	=140
0r	1E	2d\]	0r
.	.	2c#i\	.
.	1D	1d	.
=141	=141	=141	=141
0r	1AA	2r	[0a
.	.	2c\	.
.	2r	2d\	.
.	2C/	2e\	.
=142	=142	=142	=142
0r	2D/	2.f\	0a]
.	2E/	.	.
.	.	8e\L	.
.	.	8d\J	.
.	2F/	2c\	.
.	4E/	2d\	.
.	4D/	.	.
=143	=143	=143	=143
0r	2C/	2e\	[0a
.	2D/	2A/	.
.	2AA/	2.a\	.
.	[2A/	.	.
.	.	4g\	.
=144	=144	=144	=144
0r	2A/]	2f\	0a]
.	2G/	1e	.
.	1F	.	.
.	.	2d\	.
=145	=145	=145	=145
0r	1E	0e	1g
.	2r	.	2r
.	2E/	.	2g/
=146	=146	=146	=146
0r	2F/	1r	2a/
.	2G/	.	2b\
.	1A	[1e	2cc\
.	.	.	4b\
.	.	.	4a/
=147	=147	=147	=147
0r	1E	2e\]	1g
.	.	4d\	.
.	.	4c\	.
.	2r	2B\	2r
.	2E/	[2e\	2g/
=148	=148	=148	=148
0r	2F/	4e\]	2a/
.	.	4d\	.
.	2G/	2B\	2b\
.	2.A/	2A/	2cc\
.	.	2B\	2dd\
.	8G/L	.	.
.	8F/J	.	.
=149	=149	=149	=149
0r	1E	2c\	2.g/
.	.	1B	.
.	.	.	4a/
.	2r	.	2b\
.	2E/	[2e\	[2cc\
=150	=150	=150	=150
0r	2F/	2e\]	4cc\]
.	.	.	4b\
.	2G/	2d\	1b
.	1A	1c	.
.	.	.	2a/
=151	=151	=151	=151
0r	2E/	2B\	2b\
.	1c	1e	2g/
.	.	.	2a/
.	2B\	2d\	2b\
=152	=152	=152	=152
0r	2A/	2c\	0e
.	2G/	2B\	.
.	1A	1c	.
=153	=153	=153	=153
0r	2E/	2B\	2r
.	1A	2r	1cc
.	.	1r	.
.	2G/	.	2b\
=154	=154	=154	=154
0r	2F/	2r	2a/
.	2E/	1g	2g/
.	2D/	.	1a
.	2D/	2f\	.
=155	=155	=155	=155
0r	2r	2e\	1g
.	1G	2d\	.
.	.	2e\	1r
.	2F/	2A/	.
=156	=156	=156	=156
0r	2E/	2c\	2r
.	2D/	2d\	1a
.	2E/	1B	.
.	2E/	.	2g/
=157	=157	=157	=157
0r	2r	2r	2f/
.	1A	1e	2e/
.	.	.	1f
.	2B\	2d\	.
=158	=158	=158	=158
0r	2c\	2c\	[0el
.	2G/	2B\	.
.	1A	1c	.
=159	=159	=159	=159
0r	0El	0Bl	0e]
!!LO:LB:i:g=z
=160||	=160||	=160||	=160||
*>D	*>D	*>D	*>D
*clefF4	*clefGv2	*clefGv2	*clefG2
*k[]	*k[]	*k[]	*k[]
*M2/1	*M2/1	*M2/1	*M2/1
*met(C|)	*met(C|)	*met(C|)	*met(C|)
!!section: Esurientes
!!!OMD: Esurientes
1D	[0A	0r	0r
2D\	.	.	.
[2F\	.	.	.
=161	=161	=161	=161
4F\]	0A_	0r	1r
4E\	.	.	.
1D	.	.	.
.	.	.	1a
4C/	.	.	.
4BB/	.	.	.
=162	=162	=162	=162
0AA	0A_	0r	2a/
.	.	.	2.cc\
.	.	.	4b\
.	.	.	[2a/
=163	=163	=163	=163
2r	0A]	1r	2a/]
2AA/	.	.	4g/
.	.	.	4f/
2AA/	.	1e	1e
2AA/	.	.	.
=164	=164	=164	=164
2.C/	[0G	2e\	2r
.	.	2.g\	2e/
4D\	.	.	.
1E	.	.	2e/
.	.	4f\	.
.	.	[2e\	2e/
=165	=165	=165	=165
2r	0G_	2e\]	2.g/
2E\	.	4d\	.
.	.	4c\	4a/
2E\	.	1B	1b
2E\	.	.	.
=166	=166	=166	=166
2.G\	0G_	2r	2r
.	.	2B\	2g/
4A\	.	.	.
2B\	.	2B\	2g/
[2E\	.	2B\	2g/
=167	=167	=167	=167
2E\]	0G]	1B	2.b\
4D\	.	.	.
4C/	.	.	4cc\
1BB	.	1B	1dd
=168	=168	=168	=168
0AA	[0A	2r	1cc
.	.	2c\	.
.	.	2A/	2r
.	.	[2c\	2cc\
=169	=169	=169	=169
1r	0A]	4c\]	2a/
.	.	4d\	.
.	.	2e\	2.cc\
2r	.	1A	.
.	.	.	4dd\
2A\	.	.	2ee\
=170	=170	=170	=170
2F\	1A	1r	1a
2.A\	.	.	.
.	1A	2r	1r
4B\	.	.	.
2c\	.	2e\	.
=171	=171	=171	=171
0F	[0A	2f\	2r
.	.	1f	2a/
.	.	.	2f/
.	.	4e\	[2a/
.	.	4d\	.
=172	=172	=172	=172
2r	0A_	1c	4a/]
.	.	.	4b\
2F\	.	.	2cc\
2D\	.	2r	1f
[2F\	.	2f\	.
=173	=173	=173	=173
4F\]	0A]	2d\	2r
4G\	.	.	.
2A\	.	2.f\	2.a/
[1D	.	.	.
.	.	4g\	4g/
.	.	2a\	[2f/
=174	=174	=174	=174
1D]	0r	1d	2f/]
.	.	.	4e/
.	.	.	4d/
[1AA	.	2e\	2c/
.	.	2f\	2d/
=175	=175	=175	=175
0AA]	0r	2.c\	1e
.	.	4d\	.
.	.	1e	2r
.	.	.	[2cc\
=176	=176	=176	=176
0AA	0A	2.c\	4cc\]
.	.	.	4b\
.	.	.	1a
.	.	4d\	.
.	.	2e\	.
.	.	2f\	4g/
.	.	.	4f/
=177	=177	=177	=177
1r	0G	1g	2.e/
.	.	.	4f/
[1E	.	[1e	1g
=178	=178	=178	=178
0E]	0G	0e_	[0g
=179	=179	=179	=179
[0E	0B	0e_	0g_
=180	=180	=180	=180
0E]	0B	1e]	0g]
.	.	1e	.
=181	=181	=181	=181
0F	0A	1c	0a
.	.	1d	.
=182	=182	=182	=182
1E	[0B	1e	2g/
.	.	.	2.b\
1G	.	1d	.
.	.	.	4cc\
.	.	.	[2dd\
=183	=183	=183	=183
1D	0B]	1f	4dd\]
.	.	.	4cc\
.	.	.	4b\
.	.	.	4a/
1E	.	1e	2.g#i/
.	.	.	4f#i/
=184	=184	=184	=184
1AA	1A	1r	0a
1D	1r	1f	.
=185	=185	=185	=185
2D\	1A	2f\	0r
2D\	.	2f\	.
1C	2A/	1e	.
.	2A/	.	.
=186	=186	=186	=186
2r	1G	2r	0r
1C	.	1e	.
.	2r	.	.
2D\	[2G/	4d\	.
.	.	4c\	.
=187	=187	=187	=187
2E\	2G/]	2B\	0r
2AA/	2A/	2c\	.
[1E	2B\	1G	.
.	2E/	.	.
=188	=188	=188	=188
1E]	1B	0e	2r
.	.	.	1g
1E	1c	.	.
.	.	.	2a/
=189	=189	=189	=189
0E	0B	1e	2b\
.	.	.	2e/
.	.	1e	1b
=190	=190	=190	=190
1AA	0r	2.c\	1cc
.	.	8B/L	.
.	.	8A/J	.
2r	.	2G/	2b\
[2C/	.	2A/	[2e/
=191	=191	=191	=191
2C/]	0r	2E/	2e/]
2D\	.	1B	2f/
2E\	.	.	2g/
2AA/	.	[2c\	2a/
=192	=192	=192	=192
1E	0r	2c\]	2g/
.	.	2.B\	1e
1F	.	.	.
.	.	4G/	.
.	.	2A/	2d/
=193	=193	=193	=193
1E	1r	1.B	1e
2r	[1B	.	2r
[2G\	.	2G/	[2b\
=194	=194	=194	=194
2G\]	1B]	1G	2b\]
2E\	.	.	1g
2C/	1c	1r	.
2F\	.	.	[2a/
=195	=195	=195	=195
2D\	1d	1r	2a/]
1G	.	.	1b
.	1B	2r	.
2E\	.	2g\	[2g/
=196	=196	=196	=196
2C/	1c	2e\	2g/]
2F\	.	2.f\	1a
2D\	1d	.	.
.	.	4e\	.
[2G\	.	4d\	[2b\
.	.	4c\	.
=197	=197	=197	=197
2G\]	1G	2d\	2b\]
2E\	.	1e	1cc
1F	1A	.	.
.	.	2d\	4b\
.	.	.	4a/
=198	=198	=198	=198
0E	1B	0e	0g
.	1c	.	.
=199	=199	=199	=199
2r	2B\	0r	0r
2A\	2A/	.	.
2B\	1B	.	.
2G\	.	.	.
=200	=200	=200	=200
2A\	2r	0r	2r
2F\	2A/	.	2a/
1E	2A/	.	1b
.	2G/	.	.
=201	=201	=201	=201
0r	1A	2r	1cc
.	.	1e	.
.	1G	.	1r
.	.	2d\	.
=202	=202	=202	=202
0r	2E/	2e\	2r
.	2A/	2c\	2cc\
.	2B\	2B\	2dd\
.	2G/	[2e\	2b\
=203	=203	=203	=203
0r	2A/	2e\]	2cc\
.	2F/	2d\	2a/
.	1E	1e	1g
=204	=204	=204	=204
2r	0r	2r	2r
2D\	.	2A/	2f/
2E\	.	2G/	2g/
2C/	.	2A/	2e/
=205	=205	=205	=205
2D\	1r	2F/	2f/
2BB/	.	2G/	2d/
2AA/	2r	1A	2c/
[2D\	2A/	.	[2f/
=206	=206	=206	=206
2D\]	2B\	1r	4f/]
.	.	.	4e/
2C/	2G/	.	1e
2AA/	2A/	2r	.
2BB/	2F/	2d\	2d/
=207	=207	=207	=207
2.C/	[0El	2.c\	[0el
4D\	.	8B/L	.
.	.	8A/J	.
2E\	.	2G/	.
2F\	.	2A/	.
=208	=208	=208	=208
1G	0E_	1B	0e_
1C	.	1c	.
=209	=209	=209	=209
0El	0E]	0Bl	0e]
!!LO:LB:i:g=z
=210||	=210||	=210||	=210||
*>E	*>E	*>E	*>E
*clefF4	*clefGv2	*clefGv2	*clefG2
*k[]	*k[]	*k[]	*k[]
*M2/1	*M2/1	*M2/1	*M2/1
*met(C|)	*met(C|)	*met(C|)	*met(C|)
!!section: Sicut locutus est
!!!OMD: Sicut locutus est
0r	1A	0r	0r
.	2G/	.	.
.	[2A/	.	.
=211	=211	=211	=211
1D	2A/]	0r	0r
.	4G/	.	.
.	4F/	.	.
2C/	2E/	.	.
[2D\	2D/	.	.
=212	=212	=212	=212
2D\]	2F/	0r	0r
4C/	2G/	.	.
4BB/	.	.	.
1AA	1A	.	.
=213	=213	=213	=213
2r	2E/	[0e	0r
2A\	2c\	.	.
2G\	4B\	.	.
.	4A/	.	.
[2A\	[2c\	.	.
=214	=214	=214	=214
2A\]	2c\]	0e_	0r
4G\	4B\	.	.
4F\	4A/	.	.
2E\	2G/	.	.
2AA/	2A/	.	.
=215	=215	=215	=215
1c	2r	0e_	0r
.	2A/	.	.
2B\	2G/	.	.
[2c\	[2A/	.	.
=216	=216	=216	=216
2c\]	2A/]	0e]	0r
4B\	4G/	.	.
4A\	4F/	.	.
2G\	1E	.	.
2C/	.	.	.
=217	=217	=217	=217
1G	2.B\	[0d	0r
.	4c\	.	.
2r	1d	.	.
[2G\	.	.	.
=218	=218	=218	=218
4G\]	1B	0d_	0r
4A\	.	.	.
2B\	.	.	.
1G	2r	.	.
.	[2B\	.	.
=219	=219	=219	=219
2r	4B\]	0d]	0r
.	4c\	.	.
2.G\	2d\	.	.
.	2B\	.	.
4A\	.	.	.
2B\	2G/	.	.
=220	=220	=220	=220
2G\	2r	0e	0r
2E\	2.G/	.	.
2r	.	.	.
.	4A/	.	.
[2E\	2B\	.	.
=221	=221	=221	=221
4E\]	1G	[0e	0r
4F\	.	.	.
2G\	.	.	.
2E\	2r	.	.
2C/	[2G/	.	.
=222	=222	=222	=222
2r	4G/]	0e]	0r
.	4A/	.	.
2.E\	2B\	.	.
.	2G/	.	.
4F\	.	.	.
2G\	2E/	.	.
=223	=223	=223	=223
1C	2r	1e	0r
.	2.E/	.	.
2r	.	1e	.
.	4F/	.	.
[2C/	2G/	.	.
=224	=224	=224	=224
4C/]	1E	[0e	0r
4D\	.	.	.
2E\	.	.	.
2C/	2r	.	.
2AA/	[2E/	.	.
=225	=225	=225	=225
2r	4E/]	0e]	0r
.	4F/	.	.
2.C/	2G/	.	.
.	4E/	.	.
4D\	4C/	.	.
2E\	[2c\	.	.
=226	=226	=226	=226
2AA/	4c\]	0r	0r
.	4B\	.	.
2C/	1A	.	.
1BB	.	.	.
.	2G#i/	.	.
=227	=227	=227	=227
0AA	1A	[0e	0r
.	1r	.	.
=228	=228	=228	=228
1r	0A	0e_	0r
1AA	.	.	.
=229	=229	=229	=229
0E	0G	0e]	0r
=230	=230	=230	=230
[0G	[0B	0d	0r
=231	=231	=231	=231
0G]	0B]	0d	0r
=232	=232	=232	=232
[0D	1.A	0f	0r
.	4B\	.	.
.	4c\	.	.
=233	=233	=233	=233
0D]	1d	0f	0r
.	1d	.	.
=234	=234	=234	=234
1E	1B	1e	0r
1D	2r	[1f	.
.	2d\	.	.
=235	=235	=235	=235
1E	2.c\	2f\]	0r
.	.	2e\	.
.	4B\	.	.
1G	[1B	[1e	.
=236	=236	=236	=236
0F	1B]	1e]	0r
.	1A	1d	.
=237	=237	=237	=237
[0E	2B\	[0e	0r
.	4A/	.	.
.	4B\	.	.
.	2c\	.	.
.	[2B\	.	.
=238	=238	=238	=238
0E]	4B\]	0e]	0r
.	4A/	.	.
.	1A	.	.
.	2G#i/	.	.
=239	=239	=239	=239
2.AA/	0A	0r	0r
4BB/	.	.	.
4C/	.	.	.
4D\	.	.	.
2E\	.	.	.
=240	=240	=240	=240
1AA	1A	2.A/	0r
.	.	4B\	.
1r	1A	4c\	.
.	.	4d\	.
.	.	2e\	.
=241	=241	=241	=241
0r	0A	2f\	0r
.	.	4e\	.
.	.	4d\	.
.	.	2c\	.
.	.	4d\	.
.	.	4c\	.
=242	=242	=242	=242
1D	1A	[0d	0r
2D\	2A/	.	.
[2G\	[2B\	.	.
=243	=243	=243	=243
2G\]	2B\]	0d]	0r
2F\	2A/	.	.
1G	1B	.	.
=244	=244	=244	=244
1E	2.G/	[0e	0r
.	4A/	.	.
2r	2B\	.	.
[2A\	[2c\	.	.
=245	=245	=245	=245
2A\]	4c\]	0e]	0r
.	4A/	.	.
2G\	1d	.	.
1A	.	.	.
.	2c#i\	.	.
=246	=246	=246	=246
0D	0d	0f	0r
=247	=247	=247	=247
1A	0r	1e	0r
1A	.	1r	.
=248	=248	=248	=248
1G	0r	2.e\	0r
.	.	4e\	.
1A	.	2e\	.
.	.	2e\	.
=249	=249	=249	=249
1c	0r	1e	0r
2B\	.	1e	.
[2A\	.	.	.
=250	=250	=250	=250
2A\]	0r	1e	0r
2G\	.	.	.
1F	.	1d	.
=251	=251	=251	=251
0E	0r	1e	0r
.	.	1g	.
=252	=252	=252	=252
0r	1A	2f\	0r
.	.	1e	.
.	2A/	.	.
.	2A/	2d\	.
=253	=253	=253	=253
1r	1A	1c	0r
1E	1G	1B	.
=254	=254	=254	=254
2D\	0A	1r	0r
1F	.	.	.
.	.	2.c\	.
4E\	.	.	.
4D\	.	4d\	.
=255	=255	=255	=255
2.C/	1c	4e\	0r
.	.	4f\	.
.	.	1g	.
4D\	.	.	.
2E\	2B\	.	.
[2F\	[2A/	[2f\	.
=256	=256	=256	=256
4F\]	2A/]	2f\]	0r
4E\	.	.	.
2C/	2G/	1e	.
1D	1F	.	.
.	.	2d\	.
=257	=257	=257	=257
1r	[0El	[0el	0r
[1G	.	.	.
=258	=258	=258	=258
1G]	0E_	0e_	0r
1E	.	.	.
=259	=259	=259	=259
0El	0E]	0e]	0r
!!LO:LB:i:g=z
=260||	=260||	=260||	=260||
*>F1	*>F1	*>F1	*>F1
*clefF4	*clefGv2	*clefGv2	*clefG2
*k[]	*k[]	*k[]	*k[]
*M2/1	*M2/1	*M2/1	*M2/1
*met(C|)	*met(C|)	*met(C|)	*met(C|)
!!section: Sicut erat
!!!OMD: Sicut erat
0r	[0A	2.e\	0r
.	.	8d\L	.
.	.	8e\J	.
.	.	2f\	.
.	.	[2e\	.
=261	=261	=261	=261
0r	0A]	2e\]	0r
.	.	4d\	.
.	.	4c\	.
.	.	4d\	.
.	.	4c\	.
.	.	4B\	.
.	.	4A/	.
=262	=262	=262	=262
[0E	0G	1B	2.b\
.	.	.	8a/L
.	.	.	8b/J
.	.	1r	2cc\
.	.	.	[2b\
=263	=263	=263	=263
0E]	0G	1B	2b\]
.	.	.	4a/
.	.	.	4g/
.	.	1c	4a/
.	.	.	4g/
.	.	.	4f/
.	.	.	4e/
=264	=264	=264	=264
0D	0A	1.d	2.f/
.	.	.	4g/
.	.	.	4a/
.	.	.	4b-i\
.	.	[2d\	[2a/
=265	=265	=265	=265
0D	1A	2d\]	4a/]
.	.	.	4g/
.	.	4c\	1g
.	.	4B\	.
.	1A	1A	.
.	.	.	2f#i/
=266	=266	=266	=266
0E	0r	2r	0g
.	.	1G	.
.	.	4A/	.
.	.	4B\	.
=267	=267	=267	=267
0E	0r	2c\	2r
.	.	2B\	1g
.	.	1B	.
.	.	.	4a/
.	.	.	4b\
=268	=268	=268	=268
0r	0r	2r	2cc\
.	.	1E	2b\
.	.	.	1b
.	.	4F/	.
.	.	4G/	.
=269	=269	=269	=269
0r	0r	2A/	2r
.	.	2G/	1e
.	.	1G	.
.	.	.	4f/
.	.	.	4g/
=270	=270	=270	=270
2r	0r	2.c\	2a/
1C	.	.	2g/
.	.	4d\	.
.	.	1e	1g
4D\	.	.	.
4E\	.	.	.
=271	=271	=271	=271
2F\	0r	2d\	1r
2E\	.	2.e\	.
1E	.	.	2r
.	.	4d\	.
.	.	[2B\	2g/
=272	=272	=272	=272
2r	0r	2B\]	2g/
1C	.	1.e	4a/
.	.	.	4b\
.	.	.	2cc\
4D\	.	.	[2b\
4E\	.	.	.
=273	=273	=273	=273
2F\	0r	2c\	4b\]
.	.	.	4a/
2D\	.	2d\	1a
1E	.	1B	.
.	.	.	2g#i/
=274	=274	=274	=274
2r	1A	2r	0a
1AA	.	2c\	.
.	1A	2c\	.
4BB/	.	4d\	.
4C/	.	4e\	.
=275	=275	=275	=275
2D\	1A	2f\	1a
2C/	.	2.e\	.
2.D\	1A	.	1a
.	.	4d\	.
.	.	[2d\	.
8C/L	.	.	.
8BB/J	.	.	.
=276	=276	=276	=276
1AA	[0A	2d\]	1a
.	.	2c\	.
1D	.	2d\	1a
.	.	[2f\	.
=277	=277	=277	=277
2r	0A]	2f\]	0a
2.A\	.	4e\	.
.	.	4d\	.
.	.	2c\	.
4G\	.	.	.
4F\	.	[2f\	.
4E\	.	.	.
=278	=278	=278	=278
2D\	0A	4f\]	0r
.	.	4e\	.
2E\	.	1e	.
2F\	.	.	.
2F\	.	2d\	.
=279	=279	=279	=279
0E	1.G	[0e	0r
.	2A/	.	.
=280	=280	=280	=280
1E	1B	0e]	1.g
1E	1c	.	.
.	.	.	2a/
=281	=281	=281	=281
1E	1.G	1r	1b
[1E	.	[1g	1cc
.	2A/	.	.
=282	=282	=282	=282
1E]	1B	1g]	0g
1C	1c	1e	.
=283	=283	=283	=283
1.D	0A	1f	2r
.	.	.	1a
.	.	[1d	.
2C/	.	.	4b\
.	.	.	4cc\
=284	=284	=284	=284
2BB/	[0B	2d\]	1.dd
2AA/	.	2c\	.
[1GG	.	2B\	.
.	.	2A/	2cc\
=285	=285	=285	=285
0GG_	0B_	1G	2b\
.	.	.	2a/
.	.	[1G	1g
=286	=286	=286	=286
1GG]	0B]	1G]	2r
.	.	.	1.dd
1GG	.	1G	.
=287	=287	=287	=287
2AA/	1A	2E/	1.cc
1A	.	1F	.
.	1r	.	.
[2G\	.	[2G/	[2b\
=288	=288	=288	=288
2G\]	1.d	4G/]	1b]
.	.	4A/	.
2G\	.	4B\	.
.	.	4c\	.
1F	.	4d\	[1a
.	.	4e\	.
.	[2c\	[2f\	.
=289	=289	=289	=289
2F\	1c]	2f\]	2a/]
1E	.	2g\	1g
.	[1B	2e\	.
[2D\	.	2f\	[2dd\
=290	=290	=290	=290
4D\]	2B\]	2.d\	2dd\]
4E\	.	.	.
4F\	1.A	.	2.cc\
4G\	.	4e\	.
2A\	.	2f\	.
.	.	.	4b\
[2AA/	.	2f\	4a/
.	.	.	4g/
=291	=291	=291	=291
4AA/]	1c	0e	4f/
4BB/	.	.	4e/
4C/	.	.	1a
4D\	.	.	.
1E	1B	.	.
.	.	.	2g#i/
=292	=292	=292	=292
1r	[0A	2r	1a
.	.	2e\	.
1A	.	2e\	1r
.	.	[2f\	.
=293	=293	=293	=293
2A\	0A]	2f\]	1a
1A	.	4e\	.
.	.	4d\	.
.	.	1c	2a/
2A\	.	.	[2a/
=294	=294	=294	=294
1F	0r	1f	2a/]
.	.	.	2a/
1G	.	2d\	2g/
.	.	2e\	2g/
=295	=295	=295	=295
1D	0r	2f\	2a/
.	.	2d\	2a/
2C/	.	2e\	2.cc\
[2AA/	.	4c\	.
.	.	4d\	4b\
=296	=296	=296	=296
4AA/]	1r	4e\	2a/
4BB/	.	4f\	.
2C/	.	1e	2g/
1D	1A	.	1f
.	.	2d\	.
=297	=297	=297	=297
0AA	2A/	1e	0e
.	1A	.	.
.	.	1r	.
.	2A/	.	.
=298	=298	=298	=298
0r	2G/	1e	0r
.	2G/	.	.
.	2A/	2e\	.
.	2A/	[2e\	.
=299	=299	=299	=299
0r	1c	2e\]	0r
.	.	2e\	.
.	1G	1d	.
=300	=300	=300	=300
1r	0E	1e	0r
2.E\	.	2.g\	.
4D\	.	4f\	.
=301	=301	=301	=301
2C/	0r	2e\	1a
2D\	.	2d\	.
2AA/	.	[1c	2a/
[2A\	.	.	[2a/
=302	=302	=302	=302
2A\]	0r	1c]	2a/]
2A\	.	.	2a/
2E\	.	1B	2g/
2E\	.	.	2g/
=303	=303	=303	=303
1F	1r	1r	2a/
.	.	.	2a/
2F\	2r	2.A/	2.cc\
2F\	[2c\	.	.
.	.	4B\	4b\
=304	=304	=304	=304
1F	4c\]	2c\	4a/
.	4B\	.	4g/
.	4A/	1d	2.f/
.	4G/	.	.
2D\	2.F/	.	.
.	.	.	4g/
[2F\	.	4c\	[2a/
.	4G/	4B\	.
=305	=305	=305	=305
4F\]	2A/	2c\	4a/]
4E\	.	.	4g/
4D\	2.A/	2d\	4f/
4C/	.	.	4e/
[1D	.	1A	4d/
.	4G/	.	4c/
.	4F/	.	[2f/
.	4E/	.	.
=306	=306	=306	=306
2D\]	2D/	[0A	4f/]
.	.	.	4e/
2C/	2E/	.	1e
1D	1F	.	.
.	.	.	2d/
=307	=307	=307	=307
0AA	[0El	0A]	[0el
=308	=308	=308	=308
1r	0E_	[0Bl	0e_
1E	.	.	.
=309	=309	=309	=309
0El	0E]	0B]	0e]
!!LO:LB:i:g=z
=310||	=310||	=310||	=310||
*>F2	*>F2	*>F2	*>F2
*clefF4	*clefGv2	*clefGv2	*clefG2
*k[]	*k[]	*k[]	*k[]
*M2/1	*M2/1	*M2/1	*M2/1
*met(C|)	*met(C|)	*met(C|)	*met(C|)
!!section: Sicut locutus est (alternate version)
!!!OMD: Sicut locutus est (alternate version)
0r	1A	0r	1e
.	2G/	.	2e/
.	[2A/	.	[2f/
=311	=311	=311	=311
1D	2A/]	0r	2f/]
.	4G/	.	4e/
.	4F/	.	4d/
2C/	2E/	.	2e/
[2D\	2D/	.	[2f/
=312	=312	=312	=312
2D\]	2F/	0r	2f/]
4C/	2G/	.	4e/
4BB/	.	.	4d/
1AA	1A	.	2c/
.	.	.	2cc\
=313	=313	=313	=313
2r	2E/	[0e	2b\
2A\	2c\	.	2a/
2G\	4B\	.	2b\
.	4A/	.	.
[2A\	[2c\	.	2a/
=314	=314	=314	=314
2A\]	2c\]	0e_	1r
4G\	4B\	.	.
4F\	4A/	.	.
2E\	2G/	.	2r
2AA/	2A/	.	2cc\
=315	=315	=315	=315
1c	2r	0e_	2cc\
.	2A/	.	2a/
2B\	2G/	.	2b\
[2c\	[2A/	.	2a/
=316	=316	=316	=316
2c\]	2A/]	0e]	2e/
4B\	4G/	.	1b
4A\	4F/	.	.
2G\	1E	.	.
2C/	.	.	2cc\
=317	=317	=317	=317
1G	2.B\	[0d	2b\
.	.	.	2g/
.	4c\	.	.
2r	1d	.	2.b\
[2G\	.	.	.
.	.	.	4cc\
=318	=318	=318	=318
4G\]	1B	0d_	1dd
4A\	.	.	.
2B\	.	.	.
1G	2r	.	2b\
.	[2B\	.	2g/
=319	=319	=319	=319
2r	4B\]	0d]	1g
.	4c\	.	.
2.G\	2d\	.	.
.	2B\	.	2r
4A\	.	.	.
2B\	2G/	.	[2g/
=320	=320	=320	=320
2G\	2r	0e	4g/]
.	.	.	4a/
2E\	2.G/	.	2b\
2r	.	.	1g
.	4A/	.	.
[2E\	2B\	.	.
=321	=321	=321	=321
4E\]	1G	[0e	2r
4F\	.	.	.
2G\	.	.	2g/
2E\	2r	.	2.g/
2C/	[2G/	.	.
.	.	.	4a/
=322	=322	=322	=322
2r	4G/]	0e]	2b\
.	4A/	.	.
2.E\	2B\	.	2g/
.	2G/	.	2e/
4F\	.	.	.
2G\	2E/	.	[2e/
=323	=323	=323	=323
1C	2r	1e	4e/]
.	.	.	4f/
.	2.E/	.	2g/
2r	.	1e	2e/
.	4F/	.	.
[2C/	2G/	.	2c/
=324	=324	=324	=324
4C/]	1E	[0e	2r
4D\	.	.	.
2E\	.	.	2e/
2C/	2r	.	2.e/
2AA/	[2E/	.	.
.	.	.	4f/
=325	=325	=325	=325
2r	4E/]	0e]	2g/
.	4F/	.	.
2.C/	2G/	.	2e/
.	4E/	.	2c/
4D\	4C/	.	.
2E\	[2c\	.	2g/
=326	=326	=326	=326
2AA/	4c\]	0r	1a
.	4B\	.	.
2C/	1A	.	.
1BB	.	.	1b
.	2G#i/	.	.
=327	=327	=327	=327
0AA	1A	[0e	1.cc
.	1r	.	.
.	.	.	2a/
=328	=328	=328	=328
1r	0A	0e_	1a
1AA	.	.	2r
.	.	.	[2cc\
=329	=329	=329	=329
0E	0G	0e]	2cc\]
.	.	.	4b\
.	.	.	4a/
.	.	.	2b\
.	.	.	2g/
=330	=330	=330	=330
[0G	[0B	0d	2.g/
.	.	.	4a/
.	.	.	4b\
.	.	.	4cc\
.	.	.	[2dd\
=331	=331	=331	=331
0G]	0B]	0d	4dd\]
.	.	.	4cc\
.	.	.	4b\
.	.	.	4a/
.	.	.	1g
=332	=332	=332	=332
[0D	1.A	0f	0a
.	4B\	.	.
.	4c\	.	.
=333	=333	=333	=333
0D]	1d	0f	1.a
.	1d	.	.
.	.	.	4g/
.	.	.	4f/
=334	=334	=334	=334
1E	1B	1e	1g
1D	2r	[1f	1a
.	2d\	.	.
=335	=335	=335	=335
1E	2.c\	2f\]	1r
.	.	2e\	.
.	4B\	.	.
1G	[1B	[1e	1g
=336	=336	=336	=336
0F	1B]	1e]	1a
.	1A	1d	1a
=337	=337	=337	=337
[0E	2B\	[0e	1g
.	4A/	.	.
.	4B\	.	.
.	2c\	.	[1g
.	[2B\	.	.
=338	=338	=338	=338
0E]	4B\]	0e]	2g/]
.	4A/	.	.
.	1A	.	2a/
.	.	.	1b
.	2G#i/	.	.
=339	=339	=339	=339
2.AA/	0A	0r	2cc\
.	.	.	2.a/
4BB/	.	.	.
2C/	.	.	.
.	.	.	4g/
2D\	.	.	2f/
=340	=340	=340	=340
1AA	1A	2.A/	2e/
.	.	.	2.cc\
.	.	4B\	.
1r	1A	4c\	.
.	.	4d\	4b\
.	.	2e\	4a/
.	.	.	4g/
=341	=341	=341	=341
0r	0A	2f\	2a/
.	.	4e\	4g/
.	.	4d\	4f/
.	.	2c\	1e
.	.	4d\	.
.	.	4c\	.
=342	=342	=342	=342
1D	1A	[0d	2r
.	.	.	2d/
2D\	2A/	.	2f/
[2G\	[2B\	.	2g/
=343	=343	=343	=343
2G\]	2B\]	0d]	1a
2F\	2A/	.	.
1G	1B	.	1g
=344	=344	=344	=344
1E	2.G/	[0e	2r
.	.	.	1g
.	4A/	.	.
2E\	2B\	.	.
[2A\	[2c\	.	[2a/
=345	=345	=345	=345
2A\]	4c\]	0e]	2a/]
.	4A/	.	.
2G\	1d	.	2b\
1A	.	.	1cc
.	2c\	.	.
=346	=346	=346	=346
0D	0d	0f	2a/
.	.	.	2b\
.	.	.	2a/
.	.	.	[2dd\
=347	=347	=347	=347
1A	0r	1e	2dd\]
.	.	.	4cc\
.	.	.	4b\
1A	.	1r	2cc\
.	.	.	2a/
=348	=348	=348	=348
1G	0r	2.e\	1b
.	.	4e\	.
1A	.	2e\	1a
.	.	2e\	.
=349	=349	=349	=349
1.c	0r	0e	0r
2B\	.	.	.
=350	=350	=350	=350
2A\	0r	1e	2.a/
2G\	.	.	.
.	.	.	4a/
1F	.	1d	2a/
.	.	.	2a/
=351	=351	=351	=351
0E	0r	1e	1.g
.	.	1g	.
.	.	.	2g/
=352	=352	=352	=352
0r	1A	2f\	2a/
.	.	1e	1cc
.	2A/	.	.
.	2A/	2d\	2b\
=353	=353	=353	=353
1r	1A	1c	2.a/
.	.	.	8g/L
.	.	.	8f/J
1E	1G	1B	1e
=354	=354	=354	=354
2D\	1A	1r	2f/
1F	.	.	1a
.	1A	2.c\	.
4E\	.	.	4g/
4D\	.	4d\	4f/
=355	=355	=355	=355
2.C/	1c	4e\	2.e/
.	.	4f\	.
.	.	1g	.
4D\	.	.	4f/
2E\	2B\	.	2g/
[2F\	[2A/	[2f\	[2a/
=356	=356	=356	=356
4F\]	2A/]	2f\]	4a/]
4E\	.	.	4g/
2C/	2G/	1e	2e/
1D	1F	.	1f
.	.	2d\	.
=357	=357	=357	=357
1r	[0El	2.e\	1.g
.	.	4d\	.
[1G	.	2B\	.
.	.	[2c\	2e/
=358	=358	=358	=358
1G]	0E_	2c\]	[0el
.	.	2B\	.
1E	.	1c	.
=359	=359	=359	=359
0El	0E]	0Bl	0e]
==	==	==	==
*-	*-	*-	*-
!!!RDF**kern: l=long note in original notation
!!!RDF**kern: i=editorial accidental
!!!ENC:	Chris Gage 01-15-2013
!!!END:	2013/07/27/
!!!EED:	Jesse Rodin
!!!EEV:	2013/08/05/
!!!ONB:	Translated from MusicXML and edited on 2013/08/05/ by Craig Sapp
!!muse2ps: C^@{COM}^i2I150v85,85,85,150c180
